X: 27238
T: Miss Sarah Drummond Of Perth
R: strathspey
M: 4/4
K: Amixolydian
A2e>A B<ee>{f}a|{a}g2d>g {d}B>AB>G|G/A/A e>A {d}B>Ae>a|g>ed>B (3AaAf>a|
A/A/A e>A {d}B>Ae>{f}a|{a}[d2g2]d>g {d}B>AB>G|A/A/Ae>A B<ee>a|g>ed>B c<AA>e|
{^g}a2e>a c>ae>f|g2B>g d>gB>^g|{^g}a2e>a c>af>a|gedB c<A[A,A]>e|
{^g}a2e>a c>a e>f|g2B>gd>gB>g|(3agf(3gfe (3fed(3fga|(3gfe(3dcB cAAE|

